packages/core/src/svgs/tokens/branded/ENJ.svg

<svg width="24" height="24" viewBox="0 0 24 24" fill="none" xmlns="http://www.w3.org/2000/svg">
<path d="M19.8434 17.3334H10.82C8.70867 17.3293 7.27267 15.8287 6.42535 14H20.0367C21.1521 14 22 13.0821 22 12C22 10.918 21.1521 10 20.0367 10H6.24201C6.908 8.182 8.81067 6.66466 10.82 6.66667H19.8434C20.9573 6.66667 21.8066 5.81465 21.8066 4.74199C21.8066 3.65999 20.9467 2.66666 19.8434 2.66666H10.82C5.94667 2.66666 2 6.85999 2 12V12.28C2.07134 14.7034 3.03133 17.0027 4.67733 18.6926C6.32268 20.382 8.526 21.3287 10.82 21.3334H19.8434C20.9587 21.3334 21.8066 20.34 21.8066 19.2581C21.8066 18.176 20.9587 17.3334 19.8434 17.3334Z" fill="url(#paint0_linear_364_13195)"/>
<defs>
<linearGradient id="paint0_linear_364_13195" x1="21.0833" y1="16.812" x2="6.94297" y2="3.66539" gradientUnits="userSpaceOnUse">
<stop stop-color="#9468FF"/>
<stop offset="1" stop-color="#ADF8FF"/>
</linearGradient>
</defs>
</svg>

<svg xmlns="http://www.w3.org/2000/svg" width="24" height="24" fill="none" viewBox="0 0 24 24">
    <path fill="url(#ENJ__a)" d="M19.843 17.333H10.82C8.709 17.33 7.273 15.83 6.425 14h13.612C21.152 14 22 13.082 22 12s-.848-2-1.963-2H6.242c.666-1.818 2.569-3.335 4.578-3.333h9.023c1.114 0 1.964-.852 1.964-1.925 0-1.082-.86-2.075-1.964-2.075H10.82C5.947 2.667 2 6.86 2 12v.28c.071 2.423 1.031 4.723 2.677 6.413 1.646 1.689 3.849 2.636 6.143 2.64h9.023c1.116 0 1.964-.993 1.964-2.075s-.848-1.925-1.964-1.925"/>
    <defs>
        <linearGradient id="ENJ__a" x1="21.083" x2="6.943" y1="16.812" y2="3.665" gradientUnits="userSpaceOnUse">
            <stop stop-color="#9468FF"/>
            <stop offset="1" stop-color="#ADF8FF"/>
        </linearGradient>
    </defs>
</svg>
